!!!COM: Schubert, Franz
!!!CNT: Deutscher
!!!TXO: Deutsch
!!!OTL: "Halt!"
!!!OPR: Die schoene Muellerin
!!!LYR: Mu2ller, Wilhelm
!!!OPS: Opus 25
!!!ONM: No. 3
!!!ODT: 1823/
!!NB: Vocal melody only encoded.
**kern	**silbe
*clefG2	*
*k[]	*
*M6/8	*
*MM[moderato]	*
!! tempo indication: nicht zu geschwind
=11	=11
4r	.
8r	.
8r	.
{8g	{Ei-
8g	-ne
=12	=12
4ee	Mu2h-
8cc	-le
4cc	seh'
8b	ich
=13	=13
8b	blin-
8a	|
8a}	-ken}
8r	.
{8a	{aus
8a	den
=14	=14
4.cc	Er-
4a	-len
8g	her-
=15	=15
4.f}	-aus,}
8r	.
8r	.
{8a	{durch
=16	=16
4a	Rau-
8ff	|
4ff	-schen
8ee	und
=17	=17
8ee	Sin-
8dd	|
8dd}	-gen}
8r	.
8r	.
{8dd	{bricht
=18	=18
4.b	Ra2-
8cc	|
8dd	-der-
8ee	-ge-
=19	=19
4.g}	-braus,}
8r	.
8r	.
{8cc	{bricht
=20	=20
4.b	Ra2-
8cc	|
8dd	-der-
8ee	-ge-
=21	=21
4.g}	-braus.}
4r	.
8r	.
=23	=23
{4dd	{Ei,
8dd	will-
4dd	-kom-
8a	-men,
=24	=24
4dd	ei,
8dd	will-
4dd	-kom-
8b	-men,
=25	=25
4b	su2-
8cc	-sser
8dd	Mu2h-
8cc	-len-
8b	-ge-
=26	=26
4.a}	-sang,}
4r	.
8r	.
=27	=27
{4dd	{ei,
8dd	will-
4dd	-kom-
8a	-men,
=28	=28
4dd	ei,
8dd	will-
4dd	-kom-
8b	-men,
=29	=29
4b	su2-
8cc	-sser
16ee	Mu2h-
16dd	|
8cc	-len-
8b	-ge-
=30	=30
4a}	-sang.}
8r	.
4r	.
8r	.
=31	=31
4r	.
8r	.
8r	.
{8a	{Und
8a	das
=32	=32
4.dd	Haus
4dd	wie
8cc	so
=33	=33
8cc	trau-
8b	|
8b}	-lich,}
4r	.
8r	.
=34	=34
4r	.
8r	.
8r	.
{8a	{und
8a	die
=35	=35
[4.ff	Fen-
8ff]	|
8ee	-ster
8dd	wie
=36	=36
4.cc	blank,
8b}	|}
8r	.
8r	.
=37	=37
4r	.
8r	.
8r	.
{8g	{und
8g	die
=38	=38
(4g	Son-
8cc)	|
4b	-ne,
8dd	wie
=39	=39
(4cc	hel-
8ee)	|
4g	-le
8g	vom
=40	=40
(4g	Him-
8gg)	|
4ff	-mel
8dd	sie
=41	=41
4cc}	scheint,}
8r	.
4r	.
{8g	{die
=42	=42
(4g	Son-
8cc)	|
4b	-ne,
8dd	wie
=43	=43
(4cc	hel-
8ee)	|
4g	-le
8g	vom
=44	=44
(4g	Him-
8gg)	|
4ff	-mel
8dd	sie
=45	=45
4cc}	scheint.}
8r	.
4r	.
{8cc	{Ei,
=46	=46
8b	Ba2ch-
8a	|
8a	-lein,
8r	.
8ff	lie-
8ee	-bes
=47	=47
8ee	Ba2ch-
8dd	|
8dd	-lein
8r	.
8a	war
8a	es
=48	=48
[4.dd	al-
8dd]	|
8cc	-so
8b	ge-
=49	=49
4.cc}	-meint?}
8r	.
8r	.
{8cc	{ei,
=50	=50
8b	Bach-
8a	|
8a	-lein,
8r	.
8ff	lie-
8ee	-bes
=51	=51
8ee	Ba2ch-
8dd	|
8dd	-lein,
8r	.
8dd	war
8dd	es
=52	=52
[4.ff	al-
8ff]	|
8dd	-so
8b	ge-
=53	=53
4.cc}	-meint?}
8r	.
{8cc	{war
8cc	es
=54	=54
[4.dd	al-
8dd]	|
8cc	-so
8b	ge-
=55	=55
4.cc}	-meint?}
8r	.
{8cc	{war
8cc	es
=56	=56
[4.dd	al-
8dd]	|
8cc	-so
8b	ge-
=57	=57
4.cc}	-meint?}
4r	.
8r	.
*-	*-
